src/actions/22/document-export.svg

<svg version="1.1" viewBox="0 0 22 22" xmlns="http://www.w3.org/2000/svg">
 <defs>
  <style id="current-color-scheme" type="text/css">.ColorScheme-Text {
        color:#363636;
      }</style>
 </defs>
 <path d="m8.9999 16.5a3.5 3.5 0 0 0-3.5-3.5 3.5 3.5 0 0 0-3.5 3.5 3.5 3.5 0 0 0 3.5 3.5 3.5 3.5 0 0 0 3.5-3.5zm-1.0859 0-2.5 2.5-0.70703-0.70703 1.293-1.293h-3v-1h3l-1.293-1.293 0.70703-0.70703 2.5 2.5z" class="ColorScheme-Text" fill="currentColor"/>
 <path d="m7 3c-1.662 0-3 1.338-3 3v6h1v-6c0-1.108 0.892-2 2-2h5v5h5v7c0 1.108-0.892 2-2 2h-5v1h5c1.662 0 3-1.338 3-3v-7-1l-5-5h-1-5zm6 1.4141 3.5859 3.5859h-3.5859v-3.5859z" class="ColorScheme-Text" fill="currentColor"/>
</svg>

<svg xmlns="http://www.w3.org/2000/svg" viewBox="0 0 22 22">
    <defs>
        <style id="current-color-scheme" type="text/css">
            .ColorScheme-Text{color:#050505;opacity:.7}
        </style>
    </defs>
    <path fill="currentColor" d="M9 16.5A3.5 3.5 0 0 0 5.5 13 3.5 3.5 0 0 0 2 16.5 3.5 3.5 0 0 0 5.5 20 3.5 3.5 0 0 0 9 16.5zm-1.086 0-2.5 2.5-.707-.707L6 17H3v-1h3l-1.293-1.293.707-.707 2.5 2.5z" class="ColorScheme-Text"/>
    <path fill="currentColor" d="M7 3C5.338 3 4 4.338 4 6v6h1V6c0-1.108.892-2 2-2h5v5h5v7c0 1.108-.892 2-2 2h-5v1h5c1.662 0 3-1.338 3-3V8l-5-5H7zm6 1.414L16.586 8H13V4.414z" class="ColorScheme-Text"/>
</svg>
